Numix/16x16/categories/gnome-applications.svg

<?xml version="1.0" encoding="UTF-8" standalone="no"?>
<svg
   xmlns:dc="http://purl.org/dc/elements/1.1/"
   xmlns:cc="http://creativecommons.org/ns#"
   xmlns:rdf="http://www.w3.org/1999/02/22-rdf-syntax-ns#"
   xmlns:svg="http://www.w3.org/2000/svg"
   xmlns="http://www.w3.org/2000/svg"
   xmlns:sodipodi="http://sodipodi.sourceforge.net/DTD/sodipodi-0.dtd"
   xmlns:inkscape="http://www.inkscape.org/namespaces/inkscape"
   width="16"
   height="16"
   viewBox="0 0 16 16"
   id="svg2"
   version="1.1"
   inkscape:version="0.91 r"
   sodipodi:docname="gnome-applications.svg">
  <metadata
     id="metadata20">
    <rdf:RDF>
      <cc:Work
         rdf:about="">
        <dc:format>image/svg+xml</dc:format>
        <dc:type
           rdf:resource="http://purl.org/dc/dcmitype/StillImage" />
      </cc:Work>
    </rdf:RDF>
  </metadata>
  <defs
     id="defs18" />
  <sodipodi:namedview
     pagecolor="#ffffff"
     bordercolor="#666666"
     borderopacity="1"
     objecttolerance="10"
     gridtolerance="10"
     guidetolerance="10"
     inkscape:pageopacity="0"
     inkscape:pageshadow="2"
     inkscape:window-width="961"
     inkscape:window-height="480"
     id="namedview16"
     showgrid="false"
     inkscape:zoom="14.75"
     inkscape:cx="8"
     inkscape:cy="8"
     inkscape:window-x="10"
     inkscape:window-y="34"
     inkscape:window-maximized="0"
     inkscape:current-layer="svg2" />
  <g
     style="fill:#6f8bc0"
     id="g4"
     transform="translate(0.08314737,0.0839845)">
    <path
       d="m 11.917969,1.730469 c -2.59375,0 -3.078125,3.667969 -1.621094,3.667969 1.460937,0 4.214844,-3.667969 1.621094,-3.667969 z"
       id="path6"
       inkscape:connector-curvature="0" />
    <path
       d="M 7.613281,4.941406 C 8.386719,4.988281 9.242188,2.003906 7.78125,2.1875 6.320312,2.378906 6.835938,4.894531 7.613281,4.941406 Z"
       id="path8"
       inkscape:connector-curvature="0" />
    <path
       d="M 4.050781,6.800781 C 4.605469,6.558594 4.121094,4.199219 3.183594,4.84375 2.246094,5.484375 3.5,7.042969 4.050781,6.800781 Z"
       id="path10"
       inkscape:connector-curvature="0" />
    <path
       d="M 5.609375,5.566406 C 6.265625,5.429688 6.300781,2.753906 5.128906,3.234375 3.957031,3.714844 4.949219,5.699219 5.609375,5.566406 Z"
       id="path12"
       inkscape:connector-curvature="0" />
    <path
       d="m 9.042969,11.554688 c 0.117187,0.886718 -0.65625,1.320312 -1.40625,0.75 -2.402344,-1.8125 3.976562,-2.71875 3.554687,-5.199219 -0.347656,-2.054688 -6.710937,-1.421875 -7.4375,1.796875 -0.492187,2.179687 2.019532,5.199218 4.636719,5.199218 1.289063,0 2.777344,-1.152343 3.054687,-2.617187 0.210938,-1.113281 -2.5,-0.667969 -2.402343,0.07031 z"
       id="path14"
       inkscape:connector-curvature="0" />
  </g>
</svg>

<svg width="16" xmlns="http://www.w3.org/2000/svg" height="16" viewBox="0 0 16 16" xmlns:xlink="http://www.w3.org/1999/xlink">
<g style="fill:#6f8bc0">
<path d="M 11.917969 1.730469 C 9.324219 1.730469 8.839844 5.398438 10.296875 5.398438 C 11.757812 5.398438 14.511719 1.730469 11.917969 1.730469 Z "/>
<path d="M 7.613281 4.941406 C 8.386719 4.988281 9.242188 2.003906 7.78125 2.1875 C 6.320312 2.378906 6.835938 4.894531 7.613281 4.941406 Z "/>
<path d="M 4.050781 6.800781 C 4.605469 6.558594 4.121094 4.199219 3.183594 4.84375 C 2.246094 5.484375 3.5 7.042969 4.050781 6.800781 Z "/>
<path d="M 5.609375 5.566406 C 6.265625 5.429688 6.300781 2.753906 5.128906 3.234375 C 3.957031 3.714844 4.949219 5.699219 5.609375 5.566406 Z "/>
<path d="M 9.042969 11.554688 C 9.160156 12.441406 8.386719 12.875 7.636719 12.304688 C 5.234375 10.492188 11.613281 9.585938 11.191406 7.105469 C 10.84375 5.050781 4.480469 5.683594 3.753906 8.902344 C 3.261719 11.082031 5.773438 14.101562 8.390625 14.101562 C 9.679688 14.101562 11.167969 12.949219 11.445312 11.484375 C 11.65625 10.371094 8.945312 10.816406 9.042969 11.554688 Z "/>
</g>
</svg>
